X:1
T:Meagher's Children
M:2/4
L:1/8
K:C
 AGF| D3 DF-G|
M:2/4
 A2- GF| GF/2-D/2 CC|
M:3/4
 D3 DF E| F3 Ac B| A2-A/2-B/2 cd c| AG
M:3/4
| A3D/2-E/2 FE| F3A/2-B/2 cB|
M:2/4
 A2-A/2-B/2 c|
M:3/4
 c d2 c/2c/2 AG| A3 AG F| D3 CF G|
M:2/4
 A2-A/2-G/2 F| GF/2-D/2 CC/2-D/2| D3||
